static/images/pieces/shogi/cz/0OU.svg

<svg height="31.358999mm" viewBox="0 0 27.116999 31.358999" width="27.116999mm" xmlns="http://www.w3.org/2000/svg" xmlns:xlink="http://www.w3.org/1999/xlink"><linearGradient id="a" gradientUnits="userSpaceOnUse" x1="12.12312" x2="12.12312" y1="8.504883" y2="-69.731395"><stop offset="0" stop-color="#ffdba6"/><stop offset="1" stop-color="#f2c478"/></linearGradient><clipPath id="b"><path d="m0 2834.646h2834.646v-2834.646h-2834.646z" transform="translate(-603.84452 -1561.3219)"/></clipPath><g clip-path="url(#b)" stroke-miterlimit="10" transform="matrix(.35277776 0 0 -.35277776 21.583007 4.880325)"><path d="m0 0-22.28 7.578c-.3.102-.625.102-.924 0l-22.28-7.578c-.502-.171-.868-.604-.949-1.125l-10.308-66.12c-.134-.86.535-1.636 1.411-1.636h32.588 32.588c.875 0 1.545.776 1.41 1.636l-10.308 66.12c-.081.521-.446.954-.948 1.125" fill="url(#a)"/><path d="m-55.330078-69.730469c-1.378211 0-2.464222 1.254866-2.251953 2.617188l10.308594 66.11914037c.129751.83457398.718286 1.52722488 1.515625 1.79882813l22.279296 7.578125c.47722.1627972.995439.1622539 1.472657 0l22.2792965-7.578125c.7976645-.2717144 1.3860368-.96530401 1.515625-1.79882813l10.3066405-66.11914037c.214001-1.363263-.872215-2.617188-2.2499999-2.617188h-32.5878901zm0 1.699219h32.587891 32.5878901c.3722139 0 .6263119.297562.5703129.654297l-10.30859413 66.1210936c-.03241163.2084749-.17452486.38088664-.38085937.4511719l-22.2812495 7.578125c-.122782.041746-.25422.041203-.375 0l-22.279297-7.578125c-.206661-.0703964-.350564-.2437469-.382813-.4511719l-10.308594-66.1210936c-.05459-.356865.197159-.654297.570313-.654297z" fill="#4d3608"/></g><path d="m10.38515 7.7239063v-.7276045h6.416149v.7276045h-2.877345v2.0174487h2.513542v.760677h-2.513542v2.282033h3.340366v.79375h-7.4083366v-.79375h3.2742196v-2.282033h-2.38125v-.760677h2.38125v-2.0174487z" stroke-width=".352777"/><g stroke-miterlimit="10"><path d="m-.63867187 0v25.511719h1.27734374v-25.511719z" transform="matrix(.35277776 0 0 -.35277776 13.560099 26.17997)"/><path d="m-25.511719-.63867187v1.27734374h25.511719v-1.27734374z" transform="matrix(.35277776 0 0 -.35277776 18.060098 21.679963)"/><path d="m-.45117188-.45117188-18.03906212 18.03906288.90039.902343 18.04101588-18.03906212z" transform="matrix(.35277776 0 0 -.35277776 16.74205 24.861948)"/><path d="m-17.589844-18.490234-.90039.902343 18.03906212 18.03906288.90234376-.90234376z" transform="matrix(.35277776 0 0 -.35277776 16.74205 18.498005)"/></g></svg>

<?xml version="1.0" encoding="UTF-8" standalone="no"?>
<!-- Created with Inkscape (http://www.inkscape.org/) -->

<svg
   width="27.116999mm"
   height="31.358999mm"
   viewBox="0 0 27.116999 31.358999"
   version="1.1"
   id="svg1"
   xmlns:xlink="http://www.w3.org/1999/xlink"
   xmlns="http://www.w3.org/2000/svg"
   xmlns:svg="http://www.w3.org/2000/svg">
  <defs
     id="defs1">
    <linearGradient
       xlink:href="#linearGradient22"
       id="linearGradient2"
       x1="-629.75372"
       y1="49.101768"
       x2="-629.75372"
       y2="-29.13451"
       gradientUnits="userSpaceOnUse"
       gradientTransform="translate(641.87684,-40.596885)" />
    <linearGradient
       id="linearGradient22">
      <stop
         style="stop-color:#ffdba6;stop-opacity:1;"
         offset="0"
         id="stop21" />
      <stop
         style="stop-color:#f2c478;stop-opacity:1;"
         offset="1"
         id="stop22" />
    </linearGradient>
    <clipPath
       clipPathUnits="userSpaceOnUse"
       id="clipPath1306">
      <path
         d="M 0,2834.646 H 2834.646 V 0 H 0 Z"
         transform="translate(-603.84452,-1561.3219)"
         id="path1306" />
    </clipPath>
  </defs>
  <g
     id="layer1">
    <g
       id="path1305"
       clip-path="url(#clipPath1306)"
       transform="matrix(0.35277776,0,0,-0.35277776,21.583007,4.8803245)">
      <path
         style="color:#000000;fill:url(#linearGradient2);stroke-miterlimit:10;-inkscape-stroke:none"
         d="m 0,0 -22.28,7.578 c -0.3,0.102 -0.625,0.102 -0.924,0 L -45.484,0 c -0.502,-0.171 -0.868,-0.604 -0.949,-1.125 l -10.308,-66.12 c -0.134,-0.86 0.535,-1.636 1.411,-1.636 h 32.588 32.588 c 0.875,0 1.545,0.776 1.41,1.636 L 0.948,-1.125 C 0.867,-0.604 0.502,-0.171 0,0"
         id="path17" />
      <path
         style="color:#000000;fill:#4d3608;stroke-miterlimit:10;-inkscape-stroke:none"
         d="m -55.330078,-69.730469 c -1.378211,0 -2.464222,1.254866 -2.251953,2.617188 l 10.308594,66.11914037 c 0.129751,0.83457398 0.718286,1.52722488 1.515625,1.79882813 l 22.279296,7.578125 c 0.47722,0.1627972 0.995439,0.1622539 1.472657,0 L 0.2734375,0.8046875 C 1.071102,0.5329731 1.6594743,-0.16061651 1.7890625,-0.99414063 L 12.095703,-67.113281 c 0.214001,-1.363263 -0.872215,-2.617188 -2.2499999,-2.617188 H -22.742187 Z m 0,1.699219 h 32.587891 32.5878901 c 0.3722139,0 0.6263119,0.297562 0.5703129,0.654297 L 0.10742187,-1.2558594 c -0.03241163,0.2084749 -0.17452486,0.38088664 -0.38085937,0.4511719 l -22.2812495,7.578125 c -0.122782,0.041746 -0.25422,0.041203 -0.375,0 l -22.279297,-7.578125 c -0.206661,-0.0703964 -0.350564,-0.2437469 -0.382813,-0.4511719 L -55.900391,-67.376953 c -0.05459,-0.356865 0.197159,-0.654297 0.570313,-0.654297 z"
         id="path18" />
    </g>
    <path
       style="stroke-width:0.352777"
       d="M 10.38515,7.7239063 V 6.9963018 h 6.416149 V 7.7239063 H 13.923954 V 9.741355 h 2.513542 v 0.760677 h -2.513542 v 2.282033 h 3.340366 v 0.79375 H 9.8559834 v -0.79375 h 3.2742196 v -2.282033 h -2.38125 V 9.741355 h 2.38125 V 7.7239063 Z"
       id="text1306"
       aria-label="王" />
    <path
       style="color:#000000;fill:#000000;stroke-miterlimit:10;-inkscape-stroke:none"
       d="M -0.63867187,0 V 25.511719 H 0.63867187 V 0 Z"
       id="path1307"
       transform="matrix(0.35277776,0,0,-0.35277776,13.560099,26.17997)" />
    <path
       style="color:#000000;fill:#000000;stroke-miterlimit:10;-inkscape-stroke:none"
       d="M -25.511719,-0.63867187 V 0.63867187 H 0 v -1.27734374 z"
       id="path1309"
       transform="matrix(0.35277776,0,0,-0.35277776,18.060098,21.679963)" />
    <path
       style="color:#000000;fill:#000000;stroke-miterlimit:10;-inkscape-stroke:none"
       d="M -0.45117188,-0.45117188 -18.490234,17.587891 -17.589844,18.490234 0.45117188,0.45117188 Z"
       id="path1311"
       transform="matrix(0.35277776,0,0,-0.35277776,16.74205,24.861948)" />
    <path
       style="color:#000000;fill:#000000;stroke-miterlimit:10;-inkscape-stroke:none"
       d="m -17.589844,-18.490234 -0.90039,0.902343 18.03906212,18.03906288 0.90234376,-0.90234376 z"
       id="path1313"
       transform="matrix(0.35277776,0,0,-0.35277776,16.74205,18.498005)" />
  </g>
</svg>
